fa/circle-h.svg

<svg xmlns="http://www.w3.org/2000/svg" viewBox="0 0 512 512" height="1em" width="1em">
  <path d="M256 0C114.6 0 0 114.6 0 256s114.6 256 256 256 256-114.6 256-256S397.4 0 256 0zm112 360c0 13.25-10.75 24-24 24s-24-10.7-24-24v-80H192v80c0 13.3-10.7 24-24 24s-24-10.7-24-24V152c0-13.2 10.8-24 24-24s24 10.8 24 24v80h128v-80c0-13.2 10.8-24 24-24s24 10.75 24 24v208z"/>
</svg>

<svg xmlns="http://www.w3.org/2000/svg" viewBox="0 0 512 512" height="1em" width="1em">
  <path d="M256 0C114.6 0 0 114.6 0 256s114.6 256 256 256s256-114.6 256-256S397.4 0 256 0zM368 360c0 13.25-10.75 24-24 24S320 373.3 320 360v-80H192v80C192 373.3 181.3 384 168 384S144 373.3 144 360v-208C144 138.8 154.8 128 168 128S192 138.8 192 152v80h128v-80C320 138.8 330.8 128 344 128s24 10.75 24 24V360z"/>
</svg>
